**kern	**kern	**dynam
*part1	*part1	*part1
*staff2	*staff1	*
*I"Piano	*	*
*clefF4	*clefG2	*
*k[f#c#g#]	*k[f#c#g#]	*
=1	=1	=1
*^	*^	*
2Gn	4AA#X	2e	4c#	.
.	4BB	.	4B	.
*	*	*v	*v	*
=	=	=	=
4Gn 4A#X	4C#	4e	<
8GL 8B	8BBL	8f#L)	.
8GJ 8B	8BBJ	8gniJ	.
=	=	=	=
[4F#	4AA#X	4.c# 4.f#	[ f
4F#] 4A#X	4FF#	.	.
.	.	8e	.
=	=	=	=
4F#	4BB	4B 4d	.
!	!	!LO:TX:b:i:t=cres.	!
8.ryy@	8.AnL	8.BL 8.d 8.f#	.
16ryy@	16AJk	16BJk 16d 16f#	.
=	=	=	=
4ryy@	4G#	4B 4dn 4e 4b	.
4A	4FF# 4F#	4d 4e 4a	.
=	=	=	=
2A	2FF# 2F#	([2dn 2e 2a	f
=	=	=	=
4G#	4EE 4E	4d]) 4e 4g#	.
!	!	!LO:TX:b:i:t=dim.	!
4G# 4B	4Dn	4f#	.
=	=	=	=
4A	4C#	4e	p
8.A	8DL	8.dL 8.g#	.
.	8F#J	.	.
qryy@	.	16f#Jk	.
*v	*v	*	*
=	=	=
*-	*-	*-
!!!system-decoration: {(s1,s2)}
!!!RDF**kern: i = editorial accidental
